!!!SOCIAL_FUNCTION:	deer dance songs
!!!PDT:	1932
!!!OTL: No_64_The_Deer_is_Taking_Away_the_Daylight.krn
!!!REG: Southwest
!!!LANG: Non-Tone
!!!LING_GROUP: Yuman-Cochimi
**kern	**kern
*staff2	*staff1
=1-	=1-
*clefF4	*clefF4
*k[f#]	*k[f#]
*M3/4	*M3/4
4GG/	8.B\L
.	16A\Jk
4GG/	4G\
4GG/	4G\
=2	=2
4GG/	4E\
4r	4r
4GG/	8r
.	8E\
=3	=3
4GG/	4D\
4GG/	4G\
4GG/	4G\
=4||	=4||
*M2/4	*M2/4
4GG/	4G\
4r	16E\
.	16r
.	8G\
=5||	=5||
*M3/4	*M3/4
4GG/	8G\L
.	8E\J
4GG/	4D\
4GG/	4D\
=6	=6
4GG/	4D\
4GG/	4r
4r	8r
.	8D\
=7	=7
4GG/	4C/
4GG/	4E\
4GG/	4E\
=8||	=8||
*M2/4	*M2/4
4GG/	4E\
4r	16D\
.	16r
.	8E\
=9||	=9||
*M3/4	*M3/4
4GG/	8E\L
.	8E\J
4GG/	4E\
4GG/	4E\
=10	=10
4GG/	4E\
4GG/	4r
4r	8r
.	8E\
=11	=11
4GG/	4D\
4GG/	4G\
4GG/	4G\
=12||	=12||
*M2/4	*M2/4
4GG/	4G\
4r	16E\
.	16r
.	8G\
=13	=13
*M3/4	*M3/4
4GG/	8G\L
.	8E\J
4GG/	4D\
4GG/	4D\
=14	=14
4GG/	4D\
4GG/	4r
4r	8r
.	8D\
=15	=15
4GG/	4C/
4GG/	4E\
4GG/	4E\
=16||	=16||
*M2/4	*M2/4
4GG/	4E\
4r	16D\
.	16r
.	8E\
=17||	=17||
*M3/4	*M3/4
4GG/	8E\L
.	8E\J
4GG/	4E\
4GG/	4E\
=18	=18
4GG/	4E\
4r	4r
4r	4r
=19	=19
4GG/	4E\
4GG/	8E\L
.	8E\J
4r	8E\
.	8r
=20||	=20||
*M5/4	*M5/4
4GG/	4B\
4r	8B\L
.	8B\
4GG/	8B\
.	8B\J
4GG/	4A\
4GG/	4G\
=21||	=21||
*M3/4	*M3/4
4GG/	2E\
4r	.
4GG/	8D\
.	8r
=22	=22
4GG/	4E\
4GG/	4G\
4GG/	4G\
=23||	=23||
*M2/4	*M2/4
4GG/	4G\
4r	16E\
.	16r
.	8G\
=24||	=24||
*M3/4	*M3/4
4GG/	8G\L
.	8E\J
4GG/	4D\
4GG/	4D\
=25	=25
4GG/	4D\
4GG/	4r
4r	8r
.	8D\
=26	=26
4GG/	4C/
4GG/	4E\
4GG/	4E\
=27	=27||
*	*M2/4
.	4E\
=	--
*M2/4	*
4GG/	.
4r	16D\
.	16r
.	8E\
=28||	=28||
*M3/4	*M3/4
4GG/	8E\L
.	8E\J
4GG/	4E\
4r	4E\
=29	=29
4GG/	4E\
4GG/	4r
4r	8r
.	8E\
=30	=30
4GG/	4E\
4GG/	4B\
4GG/	4B\
=31||	=31||
*M5/4	*M5/4
4GG/	4B\
4r	8A#\L
.	8B\
4GG/	8B\
.	8An\J
4GG/	8G\L
.	16A\Jk
.	16r
4GG/	8G\L
.	16A\Jk
.	16r
=32||	=32||
*M3/4	*M3/4
4GG/	4E\
4GG/	4r
4r	8r
.	8G\
=33	=33
4GG/	4E\
4GG/	4G\
4GG/	4G\
=34||	=34||
*M2/4	*M2/4
4GG/	4G\
4r	16E\
.	16r
.	8G\
=35||	=35||
*M3/4	*M3/4
4GG/	8G\L
.	8E\J
4GG/	4D\
4GG/	4D\
=36	=36
4GG/	4D\
4GG/	4r
4r	8r
.	8D\
=37	=37
4GG/	4C/
4GG/	4E\
4GG/	4E\
=38||	=38||
*M2/4	*M2/4
4GG/	4E\
4r	8D\
.	16r
.	16E\
=39||	=39||
*M3/4	*M3/4
4GG/	8E\L
.	8E\J
4GG/	4E\
4GG/	4E\
=40	=40
4GG/	4E\
4GG/	4r
4r	8r
.	8E\
=41	=41
4GG/	4E\
4GG/	8E\L
.	8E\J
4GG/	8E\
.	8r
=42||	=42||
*M5/4	*M5/4
4GG/	4B\
4r	8A#\L
.	8B\
4GG/	8B\
.	8An\J
4GG/	8G\L
.	16A\Jk
.	16r
4GG/	8G\L
.	16A\Jk
.	16r
=43||	=43||
*M3/4	*M3/4
4GG/	4E\
4GG/	4r
4r	8r
.	8G\
=44	=44
4GG/	4E\
4GG/	4G\
4GG/	4G\
=45||	=45||
*M2/4	*M2/4
4GG/	4G\
4r	16E\
.	16r
.	8G\
=46||	=46||
*M3/4	*M3/4
4GG/	8G\L
.	8E\J
4GG/	4D\
4GG/	4D\
=47	=47
4GG/	4D\
4GG/	4r
4r	8r
.	8D\
=48	=48
4GG/	4C/
4GG/	4E\
4GG/	4E\
=49||	=49||
!!pagebreak:default
*M2/4	*M2/4
4GG/	4E\
4r	8D\
.	16r
.	16D\
=50||	=50||
*M3/4	*M3/4
4GG/	8E\L
.	8E\J
4GG/	4E\
4GG/	4E\
=51	=51
4GG/	4E\
4GG/	4r
4r	8r
.	8E\
=52	=52
4GG/	4E\
4GG/	8E\L
.	8E\J
4GG/	8E\
.	8r
==	==
*-	*-
